Projects/Foundations/Icons-SVG-Sources/assets/euro.svg

<svg width="512" height="512" viewBox="0 0 512 512" fill="none" xmlns="http://www.w3.org/2000/svg">
<g clip-path="url(#clip0_115_185)">
<path d="M1 257C1 398.4 115.6 513 257 513V1C115.6 1 1 115.6 1 257Z" fill="#365558"/>
<path d="M257 1V513C398.4 513 513 398.4 513 257C513 115.6 398.4 1 257 1Z" fill="#0295AA"/>
<path d="M317.662 328.42C303.262 346.22 283.522 357.22 261.732 357.22C217.682 357.22 189.672 312.35 189.672 257.01C189.672 201.67 217.672 156.81 261.732 156.81C283.522 156.81 303.262 167.81 317.662 185.59L341.532 160.44C321.202 133.58 292.532 116.79 260.662 116.79C199.002 116.79 156.512 179.56 156.512 257C156.512 334.44 199.002 397.21 260.662 397.21C292.502 397.21 321.192 380.44 341.532 353.56L317.662 328.42Z" fill="white"/>
<path d="M283.061 216.71H167.891V245.36H283.061V216.71Z" fill="white"/>
<path d="M283.061 270.08H167.891V297.31H283.061V270.08Z" fill="white"/>
<path d="M156.512 256.8C156.512 332.69 197.352 394.49 257.002 396.93V356.83C226.792 354.57 204.772 330.66 195.112 297.11H167.892V269.88H190.212C189.852 265.6 189.672 261.243 189.672 256.81C189.672 252.87 189.815 248.986 190.102 245.16H167.892V216.51H195.112C204.772 182.97 226.792 159.05 257.002 156.79V116.68C197.352 119.11 156.512 180.91 156.512 256.8Z" fill="#E6EAEA"/>
<path d="M167.891 216.51V245.16H190.101H257.001V216.51H195.111H167.891Z" fill="#E6EAEA"/>
<path d="M167.891 269.88V297.12H195.111H257.001V269.88H190.211H167.891Z" fill="#E6EAEA"/>
</g>
<defs>
<clipPath id="clip0_115_185">
<rect width="512" height="512" fill="white"/>
</clipPath>
</defs>
</svg>

<svg id="Layer_1" data-name="Layer 1" xmlns="http://www.w3.org/2000/svg" viewBox="0 0 512 512"><defs><style>.cls-1{fill:#365558;}.cls-2{fill:#0295aa;}.cls-3{fill:#fff;}.cls-4{fill:#e6eaea;}</style></defs><title>euro</title><path class="cls-1" d="M1,257C1,398.4,115.6,513,257,513V1C115.6,1,1,115.6,1,257Z"/><path class="cls-2" d="M257,1V513c141.4,0,256-114.6,256-256S398.4,1,257,1Z"/><path class="cls-3" d="M317.66,328.42c-14.4,17.8-34.14,28.8-55.93,28.8-44.05,0-72.06-44.87-72.06-100.21s28-100.2,72.06-100.2c21.79,0,41.53,11,55.93,28.78l23.87-25.15c-20.33-26.86-49-43.65-80.87-43.65C199,116.79,156.51,179.56,156.51,257S199,397.21,260.66,397.21c31.84,0,60.53-16.77,80.87-43.65Z"/><rect class="cls-3" x="167.89" y="216.71" width="115.17" height="28.65"/><rect class="cls-3" x="167.89" y="270.08" width="115.17" height="27.23"/><path class="cls-4" d="M156.51,256.8c0,75.89,40.84,137.69,100.49,140.13v-40.1c-30.21-2.26-52.23-26.17-61.89-59.72H167.89V269.88h22.32q-.54-6.42-.54-13.07,0-5.91.43-11.65H167.89V216.51h27.22c9.66-33.54,31.68-57.46,61.89-59.72V116.68C197.35,119.11,156.51,180.91,156.51,256.8Z"/><polygon class="cls-4" points="167.89 216.51 167.89 245.16 190.1 245.16 257 245.16 257 216.51 195.11 216.51 167.89 216.51"/><polygon class="cls-4" points="167.89 269.88 167.89 297.12 195.11 297.12 257 297.12 257 269.88 190.21 269.88 167.89 269.88"/></svg>
